X:228
T:More Love to Thee
%%stretchlast false
M:4/4
L:1/4
K:G clef=C1
"^I"[G,GBd]2 "^IV²"[G,Gce] "^I"[G,GBd] | "^I¹"[B,Gdg]3/2 "^V"[DFda]/ "^I"[Gdb]2 | [Gdb]2 "^V¹"[FAda] "^II7²"[EA^cg] | "^V"[DFda]3 "^I"[GB] | [GBd] "^iv"[Gcd] "^vi¹"[GBe] "^I¹"[B,Gd] | [B,Gdg]/ "^i"[DGdg]/ [Gdg]/ "^V¹"[FGda]/ "^I"[Gdb] "^IVmaj7"[CGeb] | "^ii¹"[Ccea] "^v7"[Dcda] "^I²"[DBdg] "^V"[Gcdf] | "^I"[GBdg]2 [GBg]2 | "^IV²"[Gegc'] [Gegc'] [Gegc'] [Gegc']/ [Gegc']/ | [Gegc']3/2 "^I"[Gdgb]/ "^iii¹"[Ddfb]2 | "^v7"[Dcda] [Dcda] [Dcda] [Dcda]/ [Gcda]/ | "^ii"[Gcda]3/2 "^I"[GBdg]/ "^iv7"[CBcg]2 | "^IV"[CGce] [CGce] "^vi7²"[B,Gde] [B,Gde] | "^I¹"[B,Gdg] "^ii7"[A,Geg]2 "^v"[Dd] | "^v7"[Dcda] [G,cda] "^I"[G,Bdg] "^V"[G,Adf] | "^I¹"[Bg]3 |]
